X: 24715
T: Macroom Lasses, The
R: reel
M: 4/4
K: Amajor
|:EAAc B2af|(3efe cA BAFA|EAAc B2af|ecdB cAAF|
EAAc B2af|(3efe cA BAFA|EAAc B2af|ecdB cAA2:|
|:aefa (3efe ce|dBcA BAFA|aefa eac'a|babc' a2ab|
c'afa (3efe ce|dBcA BAFA|EAAc B2af|ecdB cAA2:|

